X:53
T:Reel 53
M:4/4
K:Gmaj
L:1/8
dc|B>G (3GGG GAG2|B>d (3BdB g2fg|e>A (3AGA eAgA|B>A (3AAA a2ge|f>g (3GGG G>G (3GFG |B>G (3GGG G2AG|A>A (3AAA fAag||fedc Bcdc|B>A (3AGA d>G (3GGG |A>c (3AAA e2dc|A>A (3AAA f>A (3AAA |eaag fged|afgf gded|AAAA gfge|fgfe dcdc|BGAF G2|
